svgs/light/briefcase-arrow-right.svg

<svg xmlns="http://www.w3.org/2000/svg" viewBox="0 0 512 512"><!--! Font Awesome Pro 6.1.1 by @fontawesome - https://fontawesome.com License - https://fontawesome.com/license (Commercial License) Copyright 2022 Fonticons, Inc. --><path d="M448 96h-64V48C384 21.53 362.5 0 336 0h-160C149.5 0 128 21.53 128 48V96H64C28.65 96 0 124.7 0 160v256c0 35.35 28.65 64 64 64h384c35.35 0 64-28.65 64-64V160C512 124.7 483.3 96 448 96zM160 48C160 39.17 167.2 32 176 32h160C344.8 32 352 39.17 352 48V96H160V48zM480 416c0 17.64-14.36 32-32 32H64c-17.64 0-32-14.36-32-32V160c0-17.64 14.36-32 32-32h384c17.64 0 32 14.36 32 32V416zM379.3 276.7l-79.98-79.98c-6.25-6.25-16.38-6.25-22.62 0s-6.25 16.38 0 22.62L329.4 272H144C135.2 272 128 279.2 128 288s7.156 16 16 16h185.4l-52.69 52.69c-6.25 6.25-6.25 16.38 0 22.62C279.8 382.4 283.9 384 288 384s8.188-1.562 11.31-4.688l79.98-79.98c1.484-1.48 2.662-3.254 3.477-5.223c1.617-3.91 1.617-8.309 0-12.22C381.1 279.9 380.8 278.1 379.3 276.7z"/></svg>

<svg xmlns="http://www.w3.org/2000/svg" viewBox="0 0 512 512"><!--! Font Awesome Pro 6.5.1 by @fontawesome - https://fontawesome.com License - https://fontawesome.com/license (Commercial License) Copyright 2023 Fonticons, Inc. --><path d="M176 32H336c8.8 0 16 7.2 16 16V96H160V48c0-8.8 7.2-16 16-16zM128 48V96H64C28.7 96 0 124.7 0 160V416c0 35.3 28.7 64 64 64H448c35.3 0 64-28.7 64-64V160c0-35.3-28.7-64-64-64H384V48c0-26.5-21.5-48-48-48H176c-26.5 0-48 21.5-48 48zm16 80H368h80c17.7 0 32 14.3 32 32V416c0 17.7-14.3 32-32 32H64c-17.7 0-32-14.3-32-32V160c0-17.7 14.3-32 32-32h80zm155.3 68.7c-6.2-6.2-16.4-6.2-22.6 0s-6.2 16.4 0 22.6L329.4 272H144c-8.8 0-16 7.2-16 16s7.2 16 16 16H329.4l-52.7 52.7c-6.2 6.2-6.2 16.4 0 22.6s16.4 6.2 22.6 0l80-80c6.2-6.2 6.2-16.4 0-22.6l-80-80z"/></svg>
